images/icons/logo.svg

<svg width="24" height="24" viewBox="0 0 24 24" fill="none" xmlns="http://www.w3.org/2000/svg">
<g clip-path="url(#clip0_653_172)">
<path d="M2.9579 15.0568L11.0405 1.9886L11.5205 1.48303L17.6973 5.6014L17.7396 8.08665L19.2471 10.5463L12.5873 21.1038L2.9579 15.0568Z" fill="#FCF1E0"/>
<path d="M16.5731 17.2732L5.93391 10.6251M8.8678 5.81257L19.5069 12.4606M8.31958 18.7618L17.1213 4.32404M20.7294 10.4554C18.4496 9.03082 17.5542 7.91748 19.0211 5.51119L11.8017 1L3.00001 15.4377L13.6392 22.0858L20.7294 10.4554Z" stroke="#FD9222" stroke-width="2" stroke-linecap="round" stroke-linejoin="round"/>
</g>
<defs>
<clipPath id="clip0_653_172">
<rect width="24" height="24" fill="white"/>
</clipPath>
</defs>
</svg>

<svg xmlns="http://www.w3.org/2000/svg" width="24" height="24" fill="none"><g clip-path="url(#a)"><path fill="#FCF1E0" d="M2.958 15.057 11.04 1.989l.48-.506 6.177 4.118.043 2.486 1.507 2.46-6.66 10.557-9.63-6.047Z"/><path stroke="#FD9222" stroke-linecap="round" stroke-linejoin="round" stroke-width="2" d="m16.573 17.273-10.64-6.648m2.935-4.812 10.639 6.648M8.32 18.76 17.12 4.325m3.608 6.131c-2.28-1.424-3.175-2.538-1.708-4.944L11.801 1 3 15.438l10.64 6.648 7.09-11.63Z"/></g><defs><clipPath id="a"><path fill="#fff" d="M0 0h24v24H0z"/></clipPath></defs></svg>
